X:621
T:Mary Do You Fancy Me?
R:air
T:a .maire a tai.tni.geann tu me.
Z:Tempo: Moderate
M:C
L:1/8
Q:45
K:D
d>edc BA A2|d>cde f2 d2|g>a g(f/e/) f>gfd|e>def g2 g z|
g>age f>gag|fded TB2 A2|d>edc BcAF|Bcde d2 d z||


